X:799
T:Reel 799
M:4/4
K:Gmaj
L:1/8
e|dGBe d2Bd|edBe a2ge|dGBd d2ef|geec BGGd|dGBd e2ge|dGBd eAAc|BABc defe|dBAc BGG|f|g2bg  (3fga af|gdBd eAAc|gbbg efge|dBcA BGGd|g2Bd gbag| (3efg dc BAAc|GBdc Bdef|gedc BGG|
